X:1
T:Premier Livre de Pièces de Clavecin
T:Jean-Philippe Rameau
T:8. Gavotte
T:Premier Livre de Pièces de Clavecin
C:Jean-Philippe Rameau
%%score { ( 1 4 ) | ( 2 3 ) }
L:1/8
Q:1/4=170
M:2/2
K:C
V:1 treble nm="Piano" snm="Pno."
V:4 treble 
V:2 treble 
V:3 treble 
V:1
 e2 a2 | (a^g) (^fe) Pd3 e | (dc) (BA) fgef | d2 cd{c} TB2 A2 | e4 e2 a2 | (a^g) (^fe) Pd3 e | %6
 (dc) (BA) fgef | d2 PcB{c} TB3 A | A4 :| c2 (de) | (dc) (BA) f3 g | (fe) (dc) e3 f | %12
 g2 ag{g} Tf3 e | d4 g2 fe |{e} a3 g abc'a | (c'b) (ag) (gf) (ed) |{d} e3 f{e} Td3 c | c4 e2 a2 | %18
 (a^g) (^fe) Pd3 e | (dc) (BA) fgef | d2 cd{c} TB2 A2 | e4 e2 a2 | (a^g) (^fe) Pd3 e | %23
 (dc) (BA) fgef | d2 PcB{c} TB3 A | A4 e2 B2 | c3 B PA3 d |{c} B2{A} G2 g3 ^f | e3 ^f{g} Tf3 e | %29
 ^d4 bc'^fa | ga^d^f eg^ce | ^d^fBd ^cedf | eg^fg{a} Tg3 ^f/e/ | e4 e2 a2 | (a^g) (^fe) Pd3 e | %35
 (dc) (BA) fgef | d2 cd{c} TB2 A2 | e4 e2 a2 | (a^g) (^fe) Pd3 e | (dc) (BA) fgef | %40
 d2 PcB{c} TB3 A | A4 e2 B2 | c3 B PA3 d |{c} B2{A} G2 g3 ^f | e3 ^f{g} Tf3 e | ^d4 bc'^fa | %46
 ga^d^f eg^ce | ^d^fBd ^cedf | eg^fg{a} Tg3 f/e/ | e4 e2 a2 | (a^g) (^fe) Pd3 e | %51
 (d<c) (B<A) f2 e2 |{e} d2 c2{c} TB2 A2 | e4 e2 a2 | (a^g) (^fe) Pd3 e | (d<c) (B<A) f2 e2 | %56
{e} d2 PcB{c} TB3 A | A4 |] %58
V:2
 A,B,CD | z2 ^F2 ^G4 | z4 B2 A2 | ^G2 A2[K:bass] D2 C2 | [E,B,] E,,^F,,^G,, A,,B,,C,D, | %5
 z2 ^F,2 ^G,4 | A,4 B,2 A,2 | ^G,2 A,2 G,2- [G,D]2 | A,4 :| A,2 E,2 | z4 A,2 B,2 | %11
 [A,C]4[K:treble] A2 PGF | z2 c2 B2 c2 | GAGF ED C2 |[K:bass] z2 C2 F2 D2- | D8 | C4 z2 F2 | %17
 CDCB,[K:treble] A,B,CD | z2 ^F2 ^G4 | z4 B2 A2 | ^G2 A2[K:bass] D2 C2 | %21
 [E,B,] E,,^F,,^G,, A,,B,,C,D, | z2 ^F,2 ^G,4 | A,4 B,2 A,2 | ^G,2 A,2 G,2- [G,D]2 | %25
 A,4 E,^F,^G,E, | A,B,CA, D2 D,2 | G,^F,G,A, B,CDB, | CDB,C A,B,G,A, |[K:treble] B,^FBA G2 A2 | %30
 B2 ^F2 G2 A2 | B2 G2 A2 B2 | c2 A2 B4 |[K:bass] EE,^F,^G,[K:treble] A,B,CD | z2 ^F2 ^G4 | %35
 z4 B2 A2 | ^G2 A2[K:bass] D2 C2 | [E,B,] E,,^F,,^G,, A,,B,,C,D, | z2 ^F,2 ^G,4 | A,4 B,2 A,2 | %40
 ^G,2 A,2 G,2- [G,D]2 | A,4 E,^F,^G,E, | A,B,CA, D2 D,2 | G,^F,G,A, B,CDB, | CDB,C A,B,G,A, | %45
[K:treble] B,^FBA G2 A2 | B2 ^F2 G2 A2 | B2 G2 A2 B2 | c2 A2 B4 |[K:bass] EE,^F,^G, A,B,CD | %50
 EDE^F[K:treble] ^GABG | A>=G =F>E z B2 A- | A ^G2 A2 E2 C |[K:bass] E,E,,^F,,^G,, A,,B,,C,D, | %54
 E,D,E,^F, ^G,A,B,G, | A,>=G, =F,>E, z B,2 B,- | B, ^G,2 A, D,B,,E,E,, | A,,4 |] %58
V:3
 x4 | E6 E2 | A2 z2 D2 C2 | B,2 A,2[K:bass] ^G,2 A,2 | x8 | E,6 E,2 | z2 A,,2 D,2 C,2 | %7
 B,,2 A,,2 E,4 | z2 z A,, :| x4 | F,2 E,2 D,4 | x4[K:treble] x4 | E4 D2 C2 | x8 |[K:bass] F,8 | %15
 G,2 A,2 B,2 G,2 | z2 F,2 [E,G,]4 | x4[K:treble] x4 | E6 E2 | A2 z2 D2 C2 | %20
 B,2 A,2[K:bass] ^G,2 A,2 | x8 | E,6 E,2 | z2 A,,2 D,2 C,2 | B,,2 A,,2 E,4 | z2 z A,, x4 | x8 | %27
 x8 | x8 |[K:treble] x8 | x8 | x8 | x4 z2 B,2 |[K:bass] x4[K:treble] x4 | E6 E2 | A2 z2 D2 C2 | %36
 B,2 A,2[K:bass] ^G,2 A,2 | x8 | E,6 E,2 | z2 A,,2 D,2 C,2 | B,,2 A,,2 E,4 | z2 z A,, x4 | x8 | %43
 x8 | x8 |[K:treble] x8 | x8 | x8 | x4 z2 B,2 |[K:bass] x8 | x4[K:treble] x4 | x4 D2 C2 | %52
 B,2 A,2 ^G,2 A,2 |[K:bass] x8 | x8 | x4 D,2 C,2 | B,,2 A,,2 x4 | z2 z A,,, |] %58
V:4
 x4 | x8 | x8 | x8 | ^G4 z4 | x8 | x8 | x8 | z E- [CE]2 :| x4 | x8 | x8 | x8 | x8 | x8 | x8 | x8 | %17
 E4 z4 | x8 | x8 | x8 | ^G4 z4 | x8 | x8 | x8 | z E- [CE]2 x4 | x8 | x8 | x8 | x8 | x8 | x8 | x8 | %33
 ^G4 z4 | x8 | x8 | x8 | ^G4 z4 | x8 | x8 | x8 | z E- [CE]2 z4 | x8 | x8 | x8 | x8 | x8 | x8 | x8 | %49
 ^G4 z4 | x8 | x8 | x8 | ^G4 x4 | x8 | x8 | x8 | z E- [CE]2 |] %58

